icons/svg/admin_14.svg

<?xml version="1.0" encoding="UTF-8"?>
<svg width="14px" height="14px" viewBox="0 0 14 14" version="1.1" xmlns="http://www.w3.org/2000/svg" xmlns:xlink="http://www.w3.org/1999/xlink">
    <!-- Generator: Sketch 58 (84663) - https://sketch.com -->
    <title>admin_14</title>
    <desc>Created with Sketch.</desc>
    <g id="Icons-Webex" stroke="none" stroke-width="1" fill="none" fill-rule="evenodd">
        <g id="settings/admin_14" fill="#171B1F">
            <g id="admin_14">
                <path d="M7.00036767,0 C9.48136767,0 11.5003677,2.019 11.5003677,4.5 C11.5003677,6.91011429 9.59509094,8.88425143 7.21185707,8.99509183 L7.00036767,9 L4.14336767,9 C2.93777676,9 1.88343792,9.80272934 1.52219966,10.9741874 L1.47536767,11.144 L1.02236767,13 L7.50036767,13 C7.77636767,13 8.00036767,13.224 8.00036767,13.5 C8.00036767,13.7453333 7.82338002,13.9495802 7.59020581,13.9919396 L7.50036767,14 L0.906367671,14 C0.629367671,14 0.370367671,13.874 0.197367671,13.654 C0.0465105279,13.462 -0.0205915129,13.2237143 0.00550761242,12.9838542 L0.0263676707,12.864 L0.504367671,10.906 C0.905329209,9.26080769 2.3038869,8.09268639 3.94528284,8.00526462 L4.14336767,8 L4.20736767,8 C3.17536767,7.175 2.50036767,5.921 2.50036767,4.5 C2.50036767,2.019 4.51936767,0 7.00036767,0 Z M11.3363677,8 C11.6103677,8 11.8363677,8.225 11.8363677,8.5 L11.8363677,8.5 L11.8363677,9.071 C12.1913677,9.163 12.5123677,9.345 12.7623677,9.6 L12.7623677,9.6 L13.2513677,9.317 C13.4883677,9.18 13.7963677,9.262 13.9343677,9.5 C14.0703677,9.738 13.9883677,10.045 13.7513677,10.183 L13.7513677,10.183 L13.2563677,10.469 C13.3033677,10.639 13.3363677,10.815 13.3363677,11 C13.3363677,11.185 13.3033677,11.361 13.2563677,11.531 L13.2563677,11.531 L13.7513677,11.817 C13.9883677,11.955 14.0703677,12.262 13.9343677,12.5 C13.7963677,12.738 13.4883677,12.82 13.2513677,12.683 L13.2513677,12.683 L12.7623677,12.4 C12.5123677,12.655 12.1913677,12.837 11.8363677,12.929 L11.8363677,12.929 L11.8363677,13.5 C11.8363677,13.775 11.6103677,14 11.3363677,14 C11.0613677,14 10.8363677,13.775 10.8363677,13.5 L10.8363677,13.5 L10.8363677,12.929 C10.4803677,12.837 10.1603677,12.655 9.91036767,12.4 L9.91036767,12.4 L9.42136767,12.683 C9.18336767,12.82 8.87636767,12.738 8.73836767,12.5 C8.60136767,12.262 8.68336767,11.955 8.92136767,11.817 L8.92136767,11.817 L9.41636767,11.531 C9.36936767,11.361 9.33636767,11.185 9.33636767,11 C9.33636767,10.815 9.36936767,10.639 9.41636767,10.469 L9.41636767,10.469 L8.92136767,10.183 C8.68336767,10.045 8.60136767,9.738 8.73836767,9.5 C8.87636767,9.262 9.18336767,9.18 9.42136767,9.317 L9.42136767,9.317 L9.91036767,9.6 C10.1603677,9.345 10.4803677,9.163 10.8363677,9.071 L10.8363677,9.071 L10.8363677,8.5 C10.8363677,8.225 11.0613677,8 11.3363677,8 Z M11.3363677,10 C10.7853677,10 10.3363677,10.449 10.3363677,11 C10.3363677,11.551 10.7853677,12 11.3363677,12 C11.8873677,12 12.3363677,11.551 12.3363677,11 C12.3363677,10.449 11.8873677,10 11.3363677,10 Z M7.00036767,1 C5.07036767,1 3.50036767,2.57 3.50036767,4.5 C3.50036767,6.43 5.07036767,8 7.00036767,8 C8.93036767,8 10.5003677,6.43 10.5003677,4.5 C10.5003677,2.57 8.93036767,1 7.00036767,1 Z" id="fill"></path>
            </g>
        </g>
    </g>
</svg>

<svg width="14" height="14" xmlns="http://www.w3.org/2000/svg"><path d="M7 0c2.481 0 4.5 2.019 4.5 4.5a4.506 4.506 0 01-4.288 4.495L7 9H4.143c-1.205 0-2.26.803-2.62 1.974l-.048.17L1.022 13H7.5a.5.5 0 01.09.992L7.5 14H.906a.898.898 0 01-.709-.346.918.918 0 01-.191-.67l.02-.12.478-1.958c.401-1.645 1.8-2.813 3.441-2.9L4.143 8h.064C3.175 7.175 2.5 5.921 2.5 4.5 2.5 2.019 4.52 0 7 0zm4.336 8c.274 0 .5.225.5.5v.571c.355.092.676.274.926.529l.49-.283a.502.502 0 01.682.183.504.504 0 01-.183.683l-.495.286c.047.17.08.346.08.531 0 .185-.033.361-.08.531l.495.286a.504.504 0 01.183.683.502.502 0 01-.683.183l-.489-.283c-.25.255-.57.437-.926.529v.571c0 .275-.226.5-.5.5a.501.501 0 01-.5-.5v-.571a1.99 1.99 0 01-.926-.529l-.489.283a.502.502 0 01-.683-.183.502.502 0 01.183-.683l.495-.286a1.982 1.982 0 01-.08-.531c0-.185.033-.361.08-.531l-.495-.286a.502.502 0 01-.183-.683.502.502 0 01.683-.183l.49.283c.25-.255.57-.437.925-.529V8.5c0-.275.225-.5.5-.5zm0 2c-.55 0-1 .449-1 1 0 .551.45 1 1 1 .551 0 1-.449 1-1 0-.551-.449-1-1-1zM7 1C5.07 1 3.5 2.57 3.5 4.5S5.07 8 7 8s3.5-1.57 3.5-3.5S8.93 1 7 1z" fill="#171B1F" fill-rule="evenodd"/></svg>
